X:1
T: Dan R.'s Many Friends
C:prob. Dan R. MacDonald
R:Reel
Q: 232
K:A
M:4/4
L:1/8
|:e|a2 ga e1/2e1/2e ed|ca cA BF Fg|a2 ga e1/2e1/2e ed|ce dB cA Ag|
a2 ga e1/2e1/2e ed|ca cB AF FG|AE FD CE Ag|ae fd cA A:|
|:d|ce ae ce Ac|dB cA BF Fd|ce ac df ba|ge e'd' c'a ae|
ce ae ce Ac|dB cA BF FG|AE FD CE Ag|ae fd cA A:|
